X:5709
T:Gan Ainm
R:Jig
S:(Niall Keegan)
H:
N:
D:
Z:Adrian Scahill
M:6/8
L:1/8
K:C
a3 a^ga|d3 dcd|efe ede|Bcd Ace|\
a3 a^ga|d3 dcd|efe dcB|A3 Acd:||\
e3 ede|f2e d3|Bcd Bcd|Bcd Acd|\
e3 ede|f2e d3|Bcd c2B|A3 A3:||


